!!!OTL: Row Wheel, My Boatie, Row Weel
!!!ARE: Scotland
!!!AMD: Pentatonic
**kern
*>[A,B,A]
*>A
*clefG2
*k[b-]
*M6/8
*MM72
{(4f/
8g/)
=1
16a/LK
8.cc/
8a/J
16g/LK
8.f/
8d/J
=2
4.f/}
{4.g/
=3
(16a/LK
8.cc/)
8a/J
16g/LK
8.f/
8d/J
=4
4.f/}
{4f/
8g/
=5
(8.a/L
16g/k)
8a/J
8cc/L
8a/
8cc/J
=6
4dd\
8cc\
4a;/}
{16f/LL
16g/JJ
=7
8a/L
8cc/
8a/J
(8g/L
8f/)
8d/J
=8
[4.f/
4f/]}
!! Fine
==||
*>B
!! Pi&ugrave; mosso
{16a/LL
16a/JJ
=9
8.cc\L
16dd\k
8cc\J
8.a/L
16g/k
8a/J
=10
16cc\LK
8.dd\
8cc\J
8.a/L}
{16g/k
8a/J
=11
8cc\L
8a\
8cc\J
8dd\L
8cc\
8a\J
=12
[4.cc\
4cc\]}
{16f/LL
16g/JJ
=13
8a/L
8cc/
8g/J
4a/}
{16f/LL
16g/JJ
=14
8a/L
8cc/
8g/J
4a/}
{16f/LL
16g/JJ
=15
16a\LK
8.cc\
8ff\J
8dd\L
8cc\
8a\J
=16
4.g;/}
!! Da Capo al Fine
=|!
*-
